X: 18242
T: Humours Of Lisheen, The
R: jig
M: 6/8
K: Gmajor
B/d/|efg edB|~c2 A BGE|~G3 B/c/dB|BAG ABd|
efg edB|~c2 A BGE|~G3 ABB|AGF G2:|
D|GBd ~g3|agf g2 e|fed edB|cBA BGE|
GBd ~g3|agf g2 e|fed edB|AGF G2:|

